images/11949136.svg

<?xml version="1.0" encoding="UTF-8"?>
<svg xmlns="http://www.w3.org/2000/svg" xmlns:xlink="http://www.w3.org/1999/xlink" width="300pt" height="300pt" viewBox="0 0 300 300" version="1.1">
<defs>
<g>
<symbol overflow="visible" id="glyph0-0">
<path style="stroke:none;" d="M 0.59375 2.125 L 0.59375 -8.46875 L 6.59375 -8.46875 L 6.59375 2.125 Z M 1.265625 1.453125 L 5.9375 1.453125 L 5.9375 -7.78125 L 1.265625 -7.78125 Z M 1.265625 1.453125 "/>
</symbol>
<symbol overflow="visible" id="glyph0-1">
<path style="stroke:none;" d="M 4.734375 -7.953125 C 3.867188 -7.953125 3.179688 -7.628906 2.671875 -6.984375 C 2.171875 -6.347656 1.921875 -5.472656 1.921875 -4.359375 C 1.921875 -3.265625 2.171875 -2.394531 2.671875 -1.75 C 3.179688 -1.113281 3.867188 -0.796875 4.734375 -0.796875 C 5.585938 -0.796875 6.265625 -1.113281 6.765625 -1.75 C 7.273438 -2.394531 7.53125 -3.265625 7.53125 -4.359375 C 7.53125 -5.472656 7.273438 -6.347656 6.765625 -6.984375 C 6.265625 -7.628906 5.585938 -7.953125 4.734375 -7.953125 Z M 4.734375 -8.90625 C 5.953125 -8.90625 6.925781 -8.492188 7.65625 -7.671875 C 8.394531 -6.847656 8.765625 -5.742188 8.765625 -4.359375 C 8.765625 -2.984375 8.394531 -1.882812 7.65625 -1.0625 C 6.925781 -0.238281 5.953125 0.171875 4.734375 0.171875 C 3.503906 0.171875 2.519531 -0.238281 1.78125 -1.0625 C 1.039062 -1.882812 0.671875 -2.984375 0.671875 -4.359375 C 0.671875 -5.742188 1.039062 -6.847656 1.78125 -7.671875 C 2.519531 -8.492188 3.503906 -8.90625 4.734375 -8.90625 Z M 4.734375 -8.90625 "/>
</symbol>
<symbol overflow="visible" id="glyph0-2">
<path style="stroke:none;" d="M 1.171875 -8.75 L 2.765625 -8.75 L 6.65625 -1.4375 L 6.65625 -8.75 L 7.796875 -8.75 L 7.796875 0 L 6.203125 0 L 2.328125 -7.3125 L 2.328125 0 L 1.171875 0 Z M 1.171875 -8.75 "/>
</symbol>
<symbol overflow="visible" id="glyph0-3">
<path style="stroke:none;" d="M 1.171875 -8.75 L 2.359375 -8.75 L 2.359375 -5.15625 L 6.65625 -5.15625 L 6.65625 -8.75 L 7.84375 -8.75 L 7.84375 0 L 6.65625 0 L 6.65625 -4.171875 L 2.359375 -4.171875 L 2.359375 0 L 1.171875 0 Z M 1.171875 -8.75 "/>
</symbol>
</g>
</defs>
<g id="surface30497">
<rect x="0" y="0" width="300" height="300" style="fill:rgb(100%,100%,100%);fill-opacity:1;stroke:none;"/>
<path style="fill:none;stroke-width:1.2;stroke-linecap:butt;stroke-linejoin:miter;stroke:rgb(0%,0%,0%);stroke-opacity:1;stroke-miterlimit:10;" d="M 35.25 168.171875 L 48.75 175.421875 "/>
<path style="fill:none;stroke-width:1.2;stroke-linecap:butt;stroke-linejoin:miter;stroke:rgb(100%,0%,0%);stroke-opacity:1;stroke-miterlimit:10;" d="M 48.75 175.421875 L 62.25 182.667969 "/>
<path style="fill:none;stroke-width:1.2;stroke-linecap:butt;stroke-linejoin:miter;stroke:rgb(100%,0%,0%);stroke-opacity:1;stroke-miterlimit:10;" d="M 62.25 182.667969 L 75.273438 174.601562 "/>
<path style="fill:none;stroke-width:1.2;stroke-linecap:butt;stroke-linejoin:miter;stroke:rgb(0%,0%,0%);stroke-opacity:1;stroke-miterlimit:10;" d="M 75.273438 174.601562 L 88.300781 166.535156 "/>
<path style=" stroke:none;fill-rule:nonzero;fill:rgb(100%,100%,100%);fill-opacity:1;" d="M 57.25 175.667969 L 67.25 175.667969 L 67.25 189.667969 L 57.25 189.667969 Z M 57.25 175.667969 "/>
<g style="fill:rgb(100%,0%,0%);fill-opacity:1;">
  <use xlink:href="#glyph0-1" x="57.25" y="186.806641"/>
</g>
<path style="fill:none;stroke-width:1.2;stroke-linecap:butt;stroke-linejoin:miter;stroke:rgb(0%,0%,0%);stroke-opacity:1;stroke-miterlimit:10;" d="M 88.300781 166.535156 L 87.355469 135.90625 "/>
<path style="fill:none;stroke-width:1.2;stroke-linecap:butt;stroke-linejoin:miter;stroke:rgb(0%,0%,0%);stroke-opacity:1;stroke-miterlimit:10;" d="M 95.414062 163.25 L 94.65625 138.746094 "/>
<path style="fill:none;stroke-width:1.2;stroke-linecap:butt;stroke-linejoin:miter;stroke:rgb(0%,0%,0%);stroke-opacity:1;stroke-miterlimit:10;" d="M 115.296875 181.027344 L 88.300781 166.535156 "/>
<path style="fill:none;stroke-width:1.2;stroke-linecap:butt;stroke-linejoin:miter;stroke:rgb(0%,0%,0%);stroke-opacity:1;stroke-miterlimit:10;" d="M 87.355469 135.90625 L 113.40625 119.769531 "/>
<path style="fill:none;stroke-width:1.2;stroke-linecap:butt;stroke-linejoin:miter;stroke:rgb(0%,0%,0%);stroke-opacity:1;stroke-miterlimit:10;" d="M 113.40625 119.769531 L 140.402344 134.265625 "/>
<path style="fill:none;stroke-width:1.2;stroke-linecap:butt;stroke-linejoin:miter;stroke:rgb(0%,0%,0%);stroke-opacity:1;stroke-miterlimit:10;" d="M 112.695312 127.574219 L 134.292969 139.167969 "/>
<path style="fill:none;stroke-width:1.2;stroke-linecap:butt;stroke-linejoin:miter;stroke:rgb(0%,0%,0%);stroke-opacity:1;stroke-miterlimit:10;" d="M 113.40625 119.769531 L 112.933594 104.457031 "/>
<path style="fill:none;stroke-width:1.2;stroke-linecap:butt;stroke-linejoin:miter;stroke:rgb(100%,0%,0%);stroke-opacity:1;stroke-miterlimit:10;" d="M 112.933594 104.457031 L 112.457031 89.144531 "/>
<path style="fill:none;stroke-width:1.2;stroke-linecap:butt;stroke-linejoin:miter;stroke:rgb(0%,0%,0%);stroke-opacity:1;stroke-miterlimit:10;" d="M 140.402344 134.265625 L 141.351562 164.894531 "/>
<path style="fill:none;stroke-width:1.2;stroke-linecap:butt;stroke-linejoin:miter;stroke:rgb(0%,0%,0%);stroke-opacity:1;stroke-miterlimit:10;" d="M 141.351562 164.894531 L 115.296875 181.027344 "/>
<path style="fill:none;stroke-width:1.2;stroke-linecap:butt;stroke-linejoin:miter;stroke:rgb(0%,0%,0%);stroke-opacity:1;stroke-miterlimit:10;" d="M 134.949219 160.378906 L 114.109375 173.285156 "/>
<path style="fill:none;stroke-width:1.2;stroke-linecap:butt;stroke-linejoin:miter;stroke:rgb(0%,0%,0%);stroke-opacity:1;stroke-miterlimit:10;" d="M 141.351562 164.894531 L 168.347656 179.390625 "/>
<path style="fill:none;stroke-width:1.2;stroke-linecap:butt;stroke-linejoin:miter;stroke:rgb(0%,0%,0%);stroke-opacity:1;stroke-miterlimit:10;" d="M 168.347656 179.390625 L 181.375 171.320312 "/>
<path style="fill:none;stroke-width:1.2;stroke-linecap:butt;stroke-linejoin:miter;stroke:rgb(0%,0%,100%);stroke-opacity:1;stroke-miterlimit:10;" d="M 181.375 171.320312 L 194.402344 163.253906 "/>
<path style="fill:none;stroke-width:1;stroke-linecap:butt;stroke-linejoin:miter;stroke:rgb(0%,0%,0%);stroke-opacity:1;stroke-miterlimit:10;" d="M 196.660156 132.695312 L 196.660156 132.695312 M 195.921875 135.601562 L 196.960938 135.679688 M 195.183594 138.511719 L 197.265625 138.664062 M 194.445312 141.417969 L 197.566406 141.648438 M 193.710938 144.328125 L 197.867188 144.632812 M 192.972656 147.234375 L 198.171875 147.617188 M 192.234375 150.140625 L 198.472656 150.605469 M 191.496094 153.050781 L 198.773438 153.589844 M 190.757812 155.957031 L 199.078125 156.574219 M 190.019531 158.867188 L 199.378906 159.558594 M 189.28125 161.773438 L 199.679688 162.542969 M 189.007812 162.855469 L 199.792969 163.652344 "/>
<path style="fill:none;stroke-width:1.2;stroke-linecap:butt;stroke-linejoin:miter;stroke:rgb(0%,0%,0%);stroke-opacity:1;stroke-miterlimit:10;" d="M 222.765625 174.847656 L 208.582031 169.050781 "/>
<path style="fill:none;stroke-width:1.2;stroke-linecap:butt;stroke-linejoin:miter;stroke:rgb(0%,0%,100%);stroke-opacity:1;stroke-miterlimit:10;" d="M 208.582031 169.050781 L 194.402344 163.253906 "/>
<path style=" stroke:none;fill-rule:nonzero;fill:rgb(100%,100%,100%);fill-opacity:1;" d="M 190.402344 156.253906 L 199.402344 156.253906 L 199.402344 170.253906 L 190.402344 170.253906 Z M 190.402344 156.253906 "/>
<g style="fill:rgb(0%,0%,100%);fill-opacity:1;">
  <use xlink:href="#glyph0-2" x="190.402344" y="167.392578"/>
</g>
<path style="fill:none;stroke-width:1.2;stroke-linecap:butt;stroke-linejoin:miter;stroke:rgb(0%,0%,0%);stroke-opacity:1;stroke-miterlimit:10;" d="M 196.660156 132.695312 L 175.460938 110.566406 "/>
<path style="fill:none;stroke-width:1.2;stroke-linecap:butt;stroke-linejoin:miter;stroke:rgb(0%,0%,0%);stroke-opacity:1;stroke-miterlimit:10;" d="M 226.421875 125.402344 L 196.660156 132.695312 "/>
<path style="fill:none;stroke-width:1.2;stroke-linecap:butt;stroke-linejoin:miter;stroke:rgb(0%,0%,0%);stroke-opacity:1;stroke-miterlimit:10;" d="M 175.460938 110.566406 L 184.027344 81.144531 "/>
<path style="fill:none;stroke-width:1.2;stroke-linecap:butt;stroke-linejoin:miter;stroke:rgb(0%,0%,0%);stroke-opacity:1;stroke-miterlimit:10;" d="M 184.027344 81.144531 L 213.789062 73.851562 "/>
<path style="fill:none;stroke-width:1;stroke-linecap:butt;stroke-linejoin:miter;stroke:rgb(0%,0%,0%);stroke-opacity:1;stroke-miterlimit:10;" d="M 184.027344 81.144531 L 184.027344 81.144531 M 182.359375 78.652344 L 181.605469 79.371094 M 180.691406 76.15625 L 179.1875 77.601562 M 179.027344 73.664062 L 176.765625 75.828125 M 177.359375 71.167969 L 174.347656 74.054688 M 175.691406 68.675781 L 171.925781 72.28125 M 174.023438 66.179688 L 169.507812 70.507812 M 172.355469 63.6875 L 167.085938 68.734375 M 170.6875 61.191406 L 164.664062 66.964844 M 169.023438 58.699219 L 162.246094 65.191406 M 167.355469 56.203125 L 159.824219 63.417969 M 166.734375 55.277344 L 158.925781 62.757812 "/>
<path style="fill:none;stroke-width:1.2;stroke-linecap:butt;stroke-linejoin:miter;stroke:rgb(0%,0%,0%);stroke-opacity:1;stroke-miterlimit:10;" d="M 213.789062 73.851562 L 234.988281 95.980469 "/>
<path style="fill:none;stroke-width:1;stroke-linecap:butt;stroke-linejoin:miter;stroke:rgb(0%,0%,0%);stroke-opacity:1;stroke-miterlimit:10;" d="M 213.789062 73.851562 L 213.789062 73.851562 M 215.117188 71.160156 L 214.113281 70.867188 M 216.441406 68.46875 L 214.441406 67.886719 M 217.769531 65.777344 L 214.765625 64.90625 M 219.09375 63.085938 L 215.089844 61.921875 M 220.421875 60.398438 L 215.414062 58.941406 M 221.746094 57.707031 L 215.742188 55.957031 M 223.074219 55.015625 L 216.066406 52.976562 M 224.398438 52.324219 L 216.390625 49.992188 M 225.726562 49.632812 L 216.714844 47.011719 M 227.050781 46.941406 L 217.042969 44.027344 M 227.546875 45.941406 L 217.160156 42.917969 "/>
<path style="fill:none;stroke-width:1.2;stroke-linecap:butt;stroke-linejoin:miter;stroke:rgb(0%,0%,0%);stroke-opacity:1;stroke-miterlimit:10;" d="M 234.988281 95.980469 L 226.421875 125.402344 "/>
<path style="fill:none;stroke-width:1;stroke-linecap:butt;stroke-linejoin:miter;stroke:rgb(0%,0%,0%);stroke-opacity:1;stroke-miterlimit:10;" d="M 234.988281 95.980469 L 234.988281 95.980469 M 237.980469 95.78125 L 237.734375 94.769531 M 240.976562 95.585938 L 240.476562 93.558594 M 243.96875 95.390625 L 243.222656 92.351562 M 246.960938 95.191406 L 245.96875 91.140625 M 249.957031 94.996094 L 248.714844 89.929688 M 252.949219 94.796875 L 251.460938 88.722656 M 255.941406 94.601562 L 254.203125 87.511719 M 258.9375 94.40625 L 256.949219 86.300781 M 261.929688 94.207031 L 259.695312 85.09375 M 264.921875 94.011719 L 262.441406 83.882812 M 266.039062 93.9375 L 263.460938 83.433594 "/>
<path style="fill:none;stroke-width:1.2;stroke-linecap:butt;stroke-linejoin:miter;stroke:rgb(0%,0%,0%);stroke-opacity:1;stroke-miterlimit:10;" d="M 226.421875 125.402344 L 242.558594 151.453125 "/>
<path style=" stroke:none;fill-rule:nonzero;fill:rgb(0%,0%,0%);fill-opacity:1;" d="M 226.421875 125.402344 L 257.515625 126.617188 L 256.054688 115.902344 Z M 226.421875 125.402344 "/>
<path style="fill:none;stroke-width:1.2;stroke-linecap:butt;stroke-linejoin:miter;stroke:rgb(0%,0%,0%);stroke-opacity:1;stroke-miterlimit:10;" d="M 242.558594 151.453125 L 222.765625 174.847656 "/>
<path style=" stroke:none;fill-rule:nonzero;fill:rgb(0%,0%,0%);fill-opacity:1;" d="M 222.765625 174.847656 L 224.808594 205.898438 L 235.3125 203.324219 Z M 222.765625 174.847656 "/>
<path style="fill:none;stroke-width:1.2;stroke-linecap:butt;stroke-linejoin:miter;stroke:rgb(0%,0%,0%);stroke-opacity:1;stroke-miterlimit:10;" d="M 229.050781 208.070312 L 243.761719 212.355469 "/>
<path style="fill:none;stroke-width:1.2;stroke-linecap:butt;stroke-linejoin:miter;stroke:rgb(100%,0%,0%);stroke-opacity:1;stroke-miterlimit:10;" d="M 243.761719 212.355469 L 258.472656 216.636719 "/>
<path style="fill:none;stroke-width:1.2;stroke-linecap:butt;stroke-linejoin:miter;stroke:rgb(0%,0%,0%);stroke-opacity:1;stroke-miterlimit:10;" d="M 231.066406 201.148438 L 245.777344 205.429688 "/>
<path style="fill:none;stroke-width:1.2;stroke-linecap:butt;stroke-linejoin:miter;stroke:rgb(100%,0%,0%);stroke-opacity:1;stroke-miterlimit:10;" d="M 245.777344 205.429688 L 260.488281 209.714844 "/>
<path style="fill:none;stroke-width:1.2;stroke-linecap:butt;stroke-linejoin:miter;stroke:rgb(0%,0%,0%);stroke-opacity:1;stroke-miterlimit:10;" d="M 230.058594 204.609375 L 218.996094 215.210938 "/>
<path style="fill:none;stroke-width:1.2;stroke-linecap:butt;stroke-linejoin:miter;stroke:rgb(100%,0%,0%);stroke-opacity:1;stroke-miterlimit:10;" d="M 218.996094 215.210938 L 207.933594 225.808594 "/>
<path style=" stroke:none;fill-rule:nonzero;fill:rgb(100%,100%,100%);fill-opacity:1;" d="M 254.480469 206.175781 L 264.480469 206.175781 L 264.480469 220.175781 L 254.480469 220.175781 Z M 254.480469 206.175781 "/>
<g style="fill:rgb(100%,0%,0%);fill-opacity:1;">
  <use xlink:href="#glyph0-1" x="254.480469" y="217.314453"/>
</g>
<path style="fill:none;stroke-width:1.2;stroke-linecap:butt;stroke-linejoin:miter;stroke:rgb(100%,0%,0%);stroke-opacity:1;stroke-miterlimit:10;" d="M 207.933594 225.808594 L 211.578125 240.6875 "/>
<path style="fill:none;stroke-width:1.2;stroke-linecap:butt;stroke-linejoin:miter;stroke:rgb(0%,0%,0%);stroke-opacity:1;stroke-miterlimit:10;" d="M 211.578125 240.6875 L 215.226562 255.570312 "/>
<path style=" stroke:none;fill-rule:nonzero;fill:rgb(100%,100%,100%);fill-opacity:1;" d="M 202.933594 218.808594 L 212.933594 218.808594 L 212.933594 232.808594 L 202.933594 232.808594 Z M 202.933594 218.808594 "/>
<g style="fill:rgb(100%,0%,0%);fill-opacity:1;">
  <use xlink:href="#glyph0-1" x="202.933594" y="229.947266"/>
</g>
<path style=" stroke:none;fill-rule:nonzero;fill:rgb(100%,100%,100%);fill-opacity:1;" d="M 247.785156 114.257812 L 266.785156 114.257812 L 266.785156 128.257812 L 247.785156 128.257812 Z M 247.785156 114.257812 "/>
<g style="fill:rgb(100%,0%,0%);fill-opacity:1;">
  <use xlink:href="#glyph0-1" x="247.785156" y="125.396484"/>
  <use xlink:href="#glyph0-3" x="257.230469" y="125.396484"/>
</g>
<path style=" stroke:none;fill-rule:nonzero;fill:rgb(100%,100%,100%);fill-opacity:1;" d="M 255.75 81.683594 L 274.75 81.683594 L 274.75 95.683594 L 255.75 95.683594 Z M 255.75 81.683594 "/>
<g style="fill:rgb(100%,0%,0%);fill-opacity:1;">
  <use xlink:href="#glyph0-1" x="255.75" y="92.822266"/>
  <use xlink:href="#glyph0-3" x="265.195312" y="92.822266"/>
</g>
<path style=" stroke:none;fill-rule:nonzero;fill:rgb(100%,100%,100%);fill-opacity:1;" d="M 213.355469 37.429688 L 232.355469 37.429688 L 232.355469 51.429688 L 213.355469 51.429688 Z M 213.355469 37.429688 "/>
<g style="fill:rgb(100%,0%,0%);fill-opacity:1;">
  <use xlink:href="#glyph0-1" x="213.355469" y="48.568359"/>
  <use xlink:href="#glyph0-3" x="222.800781" y="48.568359"/>
</g>
<path style=" stroke:none;fill-rule:nonzero;fill:rgb(100%,100%,100%);fill-opacity:1;" d="M 143.828125 52.015625 L 162.828125 52.015625 L 162.828125 66.015625 L 143.828125 66.015625 Z M 143.828125 52.015625 "/>
<g style="fill:rgb(100%,0%,0%);fill-opacity:1;">
  <use xlink:href="#glyph0-3" x="143.828125" y="63.154297"/>
  <use xlink:href="#glyph0-1" x="152.851562" y="63.154297"/>
</g>
<path style="fill:none;stroke-width:1.2;stroke-linecap:butt;stroke-linejoin:miter;stroke:rgb(100%,0%,0%);stroke-opacity:1;stroke-miterlimit:10;" d="M 112.457031 89.144531 L 98.960938 81.894531 "/>
<path style="fill:none;stroke-width:1.2;stroke-linecap:butt;stroke-linejoin:miter;stroke:rgb(0%,0%,0%);stroke-opacity:1;stroke-miterlimit:10;" d="M 98.960938 81.894531 L 85.460938 74.648438 "/>
<path style=" stroke:none;fill-rule:nonzero;fill:rgb(100%,100%,100%);fill-opacity:1;" d="M 107.457031 82.144531 L 117.457031 82.144531 L 117.457031 96.144531 L 107.457031 96.144531 Z M 107.457031 82.144531 "/>
<g style="fill:rgb(100%,0%,0%);fill-opacity:1;">
  <use xlink:href="#glyph0-1" x="107.457031" y="93.283203"/>
</g>
</g>
</svg>

<svg xmlns="http://www.w3.org/2000/svg" xmlns:xlink="http://www.w3.org/1999/xlink" width="300pt" height="300pt" viewBox="0 0 300 300"><defs><symbol overflow="visible"><path d="M.594 2.125V-8.47h6V2.126zm.672-.672h4.671V-7.78h-4.67zm0 0"/></symbol><symbol overflow="visible" id="a"><path d="M4.734-7.953c-.867 0-1.554.324-2.062.97-.5.635-.75 1.51-.75 2.624 0 1.094.25 1.965.75 2.61.508.637 1.195.953 2.062.953.852 0 1.532-.316 2.032-.953.507-.645.765-1.516.765-2.61 0-1.113-.257-1.988-.764-2.624-.5-.645-1.18-.97-2.032-.97zm0-.953c1.22 0 2.192.414 2.922 1.234.74.824 1.11 1.93 1.11 3.313 0 1.376-.37 2.477-1.11 3.298C6.926-.24 5.953.17 4.734.17c-1.23 0-2.214-.41-2.953-1.234C1.04-1.882.673-2.984.673-4.36c0-1.382.367-2.488 1.11-3.312.738-.82 1.722-1.234 2.952-1.234zm0 0"/></symbol><symbol overflow="visible" id="b"><path d="M1.172-8.75h1.594l3.89 7.313V-8.75h1.14V0H6.204L2.328-7.313V0H1.172zm0 0"/></symbol><symbol overflow="visible" id="c"><path d="M1.172-8.75H2.36v3.594h4.296V-8.75h1.188V0H6.656v-4.172H2.36V0H1.17zm0 0"/></symbol></defs><g><path fill="#fff" d="M0 0h300v300H0z"/><path d="M35.25 168.172l13.5 7.25" stroke-width="1.2" stroke="#000" stroke-miterlimit="10" fill="none"/><path d="M48.75 175.422l13.5 7.246M62.25 182.668l13.023-8.066" stroke-width="1.2" stroke="#f00" stroke-miterlimit="10" fill="none"/><path d="M75.273 174.602l13.028-8.067" stroke-width="1.2" stroke="#000" stroke-miterlimit="10" fill="none"/><path d="M57.25 175.668h10v14h-10zm0 0" fill="#fff"/><use xlink:href="#a" x="57.25" y="186.807" fill="#f00"/><path d="M88.3 166.535l-.945-30.63M95.414 163.25l-.758-24.504M115.297 181.027L88.3 166.535M87.355 135.906l26.05-16.136M113.406 119.77l26.996 14.496M112.695 127.574l21.598 11.594M113.406 119.77l-.472-15.313" stroke-width="1.2" stroke="#000" stroke-miterlimit="10" fill="none"/><path d="M112.934 104.457l-.477-15.312" stroke-width="1.2" stroke="#f00" stroke-miterlimit="10" fill="none"/><path d="M140.402 134.266l.95 30.63M141.352 164.895l-26.055 16.132M134.95 160.38l-20.84 12.905M141.352 164.895l26.996 14.496M168.348 179.39l13.027-8.07" stroke-width="1.2" stroke="#000" stroke-miterlimit="10" fill="none"/><path d="M181.375 171.32l13.027-8.066" stroke-width="1.2" stroke="#00f" stroke-miterlimit="10" fill="none"/><path d="M196.66 132.695m-.738 2.907l1.04.078m-1.778 2.832l2.082.152m-2.82 2.754l3.12.23m-3.855 2.68l4.157.305m-4.894 2.6l5.2.384m-5.94 2.524l6.24.465m-6.977 2.446l7.277.54m-8.015 2.367l8.32.617m-9.058 2.293l9.36.692m-10.1 2.213l10.4.77m-10.672.312l10.785.797" stroke="#000" stroke-miterlimit="10" fill="none"/><path d="M222.766 174.848l-14.184-5.797" stroke-width="1.2" stroke="#000" stroke-miterlimit="10" fill="none"/><path d="M208.582 169.05l-14.18-5.796" stroke-width="1.2" stroke="#00f" stroke-miterlimit="10" fill="none"/><path d="M190.402 156.254h9v14h-9zm0 0" fill="#fff"/><use xlink:href="#b" x="190.402" y="167.393" fill="#00f"/><path d="M196.66 132.695l-21.2-22.13M226.422 125.402l-29.762 7.293M175.46 110.566l8.567-29.42M184.027 81.145l29.762-7.293" stroke-width="1.2" stroke="#000" stroke-miterlimit="10" fill="none"/><path d="M184.027 81.145m-1.668-2.493l-.755.72m-.914-3.216l-1.502 1.446m-.16-3.938l-2.262 2.164m.593-4.66l-3.012 2.887m1.343-5.38l-3.764 3.606m2.097-6.1l-4.515 4.328m2.847-6.82l-5.27 5.046m3.602-7.543l-6.023 5.775m4.36-8.266l-6.778 6.49m5.11-8.987l-7.532 7.215m6.91-8.14l-7.808 7.48" stroke="#000" stroke-miterlimit="10" fill="none"/><path d="M213.79 73.852l21.198 22.128" stroke-width="1.2" stroke="#000" stroke-miterlimit="10" fill="none"/><path d="M213.79 73.852m1.327-2.692l-1.004-.293m2.328-2.398l-2-.583m3.33-2.11l-3.004-.87m4.328-1.82l-4.004-1.165m5.332-1.524l-5.008-1.457m6.332-1.233l-6.004-1.75m7.332-.94l-7.008-2.04m8.332-.653l-8.007-2.332m9.337-.36l-9.012-2.62m10.336-.07l-10.007-2.915m10.504 1.914L217.16 42.92" stroke="#000" stroke-miterlimit="10" fill="none"/><path d="M234.988 95.98l-8.566 29.422" stroke-width="1.2" stroke="#000" stroke-miterlimit="10" fill="none"/><path d="M234.988 95.98m2.992-.2l-.246-1.01m3.243.816l-.5-2.027m3.492 1.83l-.747-3.038m3.738 2.84l-.99-4.05m3.987 3.854l-1.242-5.066m4.234 4.867l-1.49-6.074m4.48 5.88l-1.737-7.09m4.734 6.893L256.95 86.3m4.98 7.907l-2.235-9.113m5.227 8.918l-2.48-10.13m3.597 10.055l-2.58-10.503" stroke="#000" stroke-miterlimit="10" fill="none"/><path d="M226.422 125.402l16.137 26.05" stroke-width="1.2" stroke="#000" stroke-miterlimit="10" fill="none"/><path d="M226.422 125.402l31.094 1.215-1.46-10.715zm0 0"/><path d="M242.56 151.453l-19.794 23.395" stroke-width="1.2" stroke="#000" stroke-miterlimit="10" fill="none"/><path d="M222.766 174.848l2.043 31.05 10.502-2.574zm0 0"/><path d="M229.05 208.07l14.712 4.285" stroke-width="1.2" stroke="#000" stroke-miterlimit="10" fill="none"/><path d="M243.762 212.355l14.71 4.282" stroke-width="1.2" stroke="#f00" stroke-miterlimit="10" fill="none"/><path d="M231.066 201.148l14.71 4.282" stroke-width="1.2" stroke="#000" stroke-miterlimit="10" fill="none"/><path d="M245.777 205.43l14.71 4.285" stroke-width="1.2" stroke="#f00" stroke-miterlimit="10" fill="none"/><path d="M230.06 204.61l-11.064 10.6" stroke-width="1.2" stroke="#000" stroke-miterlimit="10" fill="none"/><path d="M218.996 215.21l-11.062 10.6" stroke-width="1.2" stroke="#f00" stroke-miterlimit="10" fill="none"/><path d="M254.48 206.176h10v14h-10zm0 0" fill="#fff"/><use xlink:href="#a" x="254.48" y="217.314" fill="#f00"/><path d="M207.934 225.81l3.644 14.877" stroke-width="1.2" stroke="#f00" stroke-miterlimit="10" fill="none"/><path d="M211.578 240.688l3.65 14.882" stroke-width="1.2" stroke="#000" stroke-miterlimit="10" fill="none"/><path d="M202.934 218.81h10v14h-10zm0 0" fill="#fff"/><use xlink:href="#a" x="202.934" y="229.947" fill="#f00"/><path d="M247.785 114.258h19v14h-19zm0 0" fill="#fff"/><g fill="#f00"><use xlink:href="#a" x="247.785" y="125.396"/><use xlink:href="#c" x="257.23" y="125.396"/></g><path d="M255.75 81.684h19v14h-19zm0 0" fill="#fff"/><g fill="#f00"><use xlink:href="#a" x="255.75" y="92.822"/><use xlink:href="#c" x="265.195" y="92.822"/></g><path d="M213.355 37.43h19v14h-19zm0 0" fill="#fff"/><g fill="#f00"><use xlink:href="#a" x="213.355" y="48.568"/><use xlink:href="#c" x="222.801" y="48.568"/></g><path d="M143.828 52.016h19v14h-19zm0 0" fill="#fff"/><g fill="#f00"><use xlink:href="#c" x="143.828" y="63.154"/><use xlink:href="#a" x="152.852" y="63.154"/></g><path d="M112.457 89.145l-13.496-7.25" stroke-width="1.2" stroke="#f00" stroke-miterlimit="10" fill="none"/><path d="M98.96 81.895l-13.5-7.247" stroke-width="1.2" stroke="#000" stroke-miterlimit="10" fill="none"/><path d="M107.457 82.145h10v14h-10zm0 0" fill="#fff"/><use xlink:href="#a" x="107.457" y="93.283" fill="#f00"/></g></svg>
